X: 2
T: Iníon Ní Scannláin
R: waltz
M: 3/4
L: 1/8
K: Gmaj
G3 A- AG|BG~E2 (3DEF|G3 AAG|Bdd ABd|e3 gfd|e2e dBG|A2A GAB|Bdd eBA|G3 A- AG|BG~E2 (3DEF|G3 A- AG|Bdd ABd|e3 gfd|e2e dBG|A2A GAB|Bdd ABd||e3 a- ab|g3 fge|d3 efg|BAG ABd|e3 aab|g3 dga|b6|bda dgd|e2e gfd|e3 d (3BAG|A2A GAB|Bdd eBG|A2A BAG|E3 D (3EFG|A2A GAB|Bdd eBA||


Tune 540	Setting 540

